X:281
T:Reel 281
M:4/4
K:Amaj
L:1/8
ED|CA,A,C E2DC|B,E,E,F, G,A,B,D|CA,A,C E2DC|DEFA GEDB,|CA,A,C E2DC|B,E,E,F, G,A,B,D|CA,A,C E2DC|DEFG A2|E2|AGEC DCDE|GEFG A2AF|GABc GEFD|GEFG A2EC|DB,B,D G2EF|GEFE GEBG|GEDB, CDB,C|F,A,B,G, A,2|
